X:1
T: George Grant
C:Nathaniel Gow
R:Strathspey
Q: 128
K:E
M:4/4
L:1/16
|:G2|G3E B3G A2=D2 FGAF|G3E A3F B3G Be3|G2E2 B2G2 A2=D2 FGAF|G3E A3F B3G c3A|
d2B2 e2E2 A2=D2 FGAF|G2E2 A2F2 B2G2 B2e2|G2E2 B2G2 A2=D2 FGAF|G2E2 B2G2 e2B2 e2a2|
g3e gabg a2=d2 fgag|g3e gaba g2e2 a2c'2|g3e gabg a2=d2 fgag|g3e a3f b2e2 g2b2|
g3e gabg a2=d2 fgag|g3e gaba gfed cBAG|((3A2c2A2) ((3G2B2G2) A3=D FGAF|((3z2E2e2) ((3z2G2g2) ((3z2B2b2) ((3z2e2e'2) :|
